X:16
T:Air on the G String (BWV 1068)
C:Bach, J.S.
M:4/4
L:1/8
Q:1/4=52
K:D
|:D2|G4 F2 E2|D4 C2 B,2|A,4 G,2 A,2|D4 D2 EF|
G4 A2 B2|c2 Bc d2 e2|f4 e2 d2|G6 D2|
G4 F2 E2|D4 C2 B,2|A,4 G,2 A,2|D8:|

